svg/distribute_vertical_center.svg

<svg xmlns="http://www.w3.org/2000/svg" viewBox="0 0 24 24"><path d="M2 16h3v-2h14v2h3v2h-3v2H5v-2H2zm0-8h5v2h10V8h5V6h-5V4H7v2H2z"/></svg>

<?xml version="1.0" encoding="UTF-8"?><!DOCTYPE svg PUBLIC "-//W3C//DTD SVG 1.1//EN" "http://www.w3.org/Graphics/SVG/1.1/DTD/svg11.dtd"><svg xmlns="http://www.w3.org/2000/svg" xmlns:xlink="http://www.w3.org/1999/xlink" version="1.1" id="mdi-distribute-vertical-center" width="24" height="24" viewBox="0 0 24 24"><path d="M2 16H5V14H19V16H22V18H19V20H5V18H2V16M2 8H7V10H17V8H22V6H17V4H7V6H2V8Z" /></svg>
